ufans-frontend-package/public/assets/images/video-call/camera.svg

<svg width="123" height="91" viewBox="0 0 123 91" fill="none" xmlns="http://www.w3.org/2000/svg">
<path fill-rule="evenodd" clip-rule="evenodd" d="M46.86 0.0506123H90.48L100.48 17.7506H120.9C121.43 17.7506 121.939 17.9613 122.314 18.3364C122.689 18.7115 122.9 19.2202 122.9 19.7506V88.8006C122.9 89.331 122.689 89.8397 122.314 90.2148C121.939 90.5899 121.43 90.8006 120.9 90.8006H2C1.46957 90.8006 0.960859 90.5899 0.585786 90.2148C0.210714 89.8397 0 89.331 0 88.8006V19.7306C0 19.2002 0.210714 18.6915 0.585786 18.3164C0.960859 17.9413 1.46957 17.7306 2 17.7306H11.21L22.56 17.7506H34.92L42.63 2.53061C44.19 -0.569388 43.34 0.0506123 46.86 0.0506123ZM66.64 31.7006C70.5084 31.6982 74.2905 32.8435 77.5077 34.9915C80.725 37.1395 83.2326 40.1937 84.7133 43.7675C86.194 47.3413 86.5812 51.274 85.8258 55.068C85.0705 58.8619 83.2066 62.3464 80.47 65.0806L80.24 65.2906C77.9403 67.5189 75.1285 69.1483 72.0517 70.0354C68.9748 70.9225 65.7272 71.0403 62.5942 70.3783C59.4612 69.7164 56.5387 68.295 54.0837 66.239C51.6287 64.1831 49.7162 61.5556 48.5145 58.5875C47.3128 55.6194 46.8585 52.4015 47.1916 49.2167C47.5248 46.0319 48.6351 42.9777 50.4251 40.3225C52.2151 37.6673 54.6298 35.4925 57.4572 33.9891C60.2845 32.4857 63.4378 31.6999 66.64 31.7006ZM75.4 42.4906C73.6734 40.771 71.4777 39.5992 69.088 39.122C66.6983 38.6449 64.2209 38.8836 61.9663 39.8082C59.7117 40.7329 57.7801 42.3023 56.4136 44.32C55.047 46.3376 54.3064 48.7137 54.2843 51.1505C54.2623 53.5872 54.9599 55.9763 56.2897 58.0183C57.6196 60.0603 59.5225 61.6645 61.76 62.6297C63.9975 63.595 66.4702 63.8784 68.8681 63.4445C71.266 63.0107 73.4826 61.8787 75.24 60.1906L75.4 60.0006C76.5514 58.8508 77.4648 57.4853 78.088 55.9822C78.7113 54.479 79.032 52.8678 79.032 51.2406C79.032 49.6134 78.7113 48.0022 78.088 46.4991C77.4648 44.9959 76.5514 43.6304 75.4 42.4806V42.4906ZM110.07 26.4906C111.237 26.4906 112.378 26.8366 113.348 27.4849C114.318 28.1332 115.074 29.0547 115.521 30.1328C115.967 31.2109 116.084 32.3972 115.857 33.5416C115.629 34.6861 115.067 35.7374 114.242 36.5625C113.417 37.3877 112.366 37.9496 111.221 38.1772C110.077 38.4049 108.89 38.2881 107.812 37.8415C106.734 37.3949 105.813 36.6387 105.164 35.6685C104.516 34.6982 104.17 33.5575 104.17 32.3906C104.17 30.8258 104.792 29.3251 105.898 28.2187C107.005 27.1122 108.505 26.4906 110.07 26.4906ZM66.65 21.7206C72.4905 21.7206 78.1998 23.4525 83.056 26.6973C87.9122 29.9421 91.6971 34.5541 93.9322 39.95C96.1672 45.3459 96.752 51.2834 95.6126 57.0116C94.4732 62.7399 91.6607 68.0016 87.5309 72.1315C83.401 76.2613 78.1393 79.0738 72.411 80.2132C66.6828 81.3526 60.7453 80.7678 55.3494 78.5328C49.9535 76.2977 45.3415 72.5128 42.0967 67.6566C38.8519 62.8004 37.12 57.0911 37.12 51.2506C37.12 43.4188 40.2312 35.9077 45.7691 30.3697C51.3071 24.8318 58.8182 21.7206 66.65 21.7206Z" fill="#6661E7"/>
</svg>

<svg xmlns="http://www.w3.org/2000/svg" width="122.9" height="90.801" viewBox="0 0 122.9 90.801">
  <path id="camera" d="M46.86.051H90.48l10,17.7H120.9a2,2,0,0,1,2,2V88.8a2,2,0,0,1-2,2H2a2,2,0,0,1-2-2V19.731a2,2,0,0,1,2-2h9.21l11.35.02H34.92l7.71-15.22C44.19-.569,43.34.051,46.86.051ZM66.64,31.7a19.55,19.55,0,0,1,13.83,33.38l-.23.21A19.55,19.55,0,1,1,66.64,31.7Zm8.76,10.79a12.38,12.38,0,1,0-.16,17.7L75.4,60a12.38,12.38,0,0,0,0-17.52Zm34.67-16a5.9,5.9,0,1,1-4.172,1.728A5.9,5.9,0,0,1,110.07,26.491Zm-43.42-4.77A29.53,29.53,0,1,1,45.769,30.37,29.53,29.53,0,0,1,66.65,21.721Z" fill="#e44499" fill-rule="evenodd"/>
</svg>
